X:440
T:Stay For Another While
M:4/4
L:1/8
S:John Kelly, Clare (fiddle)
R:Reel
D:Fiddle concert - Milltown Malbay 1983
Z:Bernie Stocks
K:D
d2AG FDDE | FEFG ABcA | d2AG FDDe | f2ec d3A :| defg afed | cdef g2fe |\
defg a3g  | fgag fedc | defg afed | cdef g2fe | gffe fed2 | eaag fgec ||
